X:1
T:Allein Gott in der Höh' sei Ehr'. a 3. Canto fermo in Alto
T:Allein Gott in der Höh' sei Ehr' a 3. Canto fermo in Alto
T:BWV 675
T:J. S. Bach
C:J. S. Bach
%%score { ( 1 2 4 ) | ( 3 5 ) } { ( 6 7 9 ) | ( 8 10 ) }
L:1/8
Q:1/4=60
M:3/4
K:F
V:1 treble+15 nm="Organ" snm="Org."
V:2 treble+15 
V:4 treble+15 
V:3 bass+15 
V:5 bass+15 
V:6 treble nm="Organ" snm="Org."
V:7 treble 
V:9 treble 
V:8 bass 
V:10 bass 
V:1
"^Instrument"!pp! z2 f2 g2 | a3 b/ c'/ (3b/ a/ g/ (3a/ g/ f/ |: !tenuto!.c' !tenuto!.c c'3 b- | %3
 b a/ g/ !tenuto!.a !tenuto!.d' !tenuto!.g !tenuto!.c' | %4
 a/ b/ c'- (3c'/ b/ a/ f'- (3f'/ e'/ d'/ (3e'/ f'/ g'/- | %5
 g'/ c'/ d'/ e'/ f'/ g'/ a'- (3a'/ g'/ f'/ (3g'/ a'/ b'/- | %6
 b' a'/ g'/ !tenuto!.f' !tenuto!.a' !tenuto!.d' !tenuto!.g' | %7
 !tenuto!.^c' !tenuto!.d' (3d'/ e'/ f'/ (3e'/ d'/ c'/ (3d'/ e'/ f'/ (3e'/ f'/ g'/- | %8
 g'3/2 f'/4 e'/4 (3f'/ e'/ d'/ (3e'/ d'/ ^c'/ (3d'/ =c'/ b/ (3c'/ b/ a/ | %9
 (3b/ a/ g/ a- (3a/ a'/ g'/ (3f'/ e'/ d'/- (3d'/ g'/ f'/ (3e'/ d'/ ^c'/ | %10
 (3d'/ c'/ b/ (3a/ g/ f/ (3b/ a/ g/ (3f/ e/ d/[I:staff +1] A/[I:staff -1]e/g/^c'/ | %11
 d' d'/ c'/ !tenuto!.d' !tenuto!.f' !tenuto!.b !tenuto!._e'- | %12
 e'/ d'/ g'- (3g'/ f'/ =e'/ (3d'/ ^c'/ d'/- (3d'/ e'/ d'/ (3=c'/ =b/ c'/- | %13
 c' b/ a/ !tenuto!.b !tenuto!.d' !tenuto!.g !tenuto!.c' | %14
{b} a d'/ c'/ !tenuto!.b !tenuto!._e' !tenuto!.c' !tenuto!.f' | %15
 (3b/ a/ b/ g'- (3g'/ a/ b/ (3c'/ d'/ e'/ (3f'/ e'/ d'/ (3c'/ b/ a/ | %16
 (3d'/c'/b/ (3a/ g/ f/ (3b/ a/ g/ (3f/ e/ d/ (3c/ g/ a/ (3b/ a/ g/ | %17
 (3a/ g/ f/ (3g/ f/ e/ (3f/ a/ g/ (3f/ e/ d/[I:staff +1] (3c/B/A/ (3B/A/G/ |1 %18
 AF[I:staff -1] f2 g2 | a3 b/ c'/ (3b/ a/ g/ (3a/ g/ f/ :|2[I:staff +1] AF[I:staff -1] z2 z2 || %21
 z2 g2 a2 | b3 c'/ d'/ (3c'/ b/ a/ (3b/ a/ g/ | !tenuto!.a !tenuto!.d d'3 ^c' | %24
 f' b/ a/ !tenuto!.b !tenuto!._e' !tenuto!.a !tenuto!.d' | %25
 g2- (3g/ a/ b/ (3c'/ b/ a/ !tenuto!.f' f- | %26
 (3f/ g/ a/ (3b/ a/ g/ _e'/ _e/ e'- (3e'/ c'/ b/ (3a/ b/ c'/ | %27
 !tenuto!.d' !tenuto!.b !tenuto!.a !tenuto!.f !tenuto!.d d'- | %28
 d'/ c'/ b/ a/ !tenuto!.b !tenuto!._e' !tenuto!.a !tenuto!.d' | %29
 d/f/_e/d/ !tenuto!.e _e'- (3e'/ f'/ e'/ (3d'/ c'/ d'/ | %30
 (3d'/_e'/d'/ (3c'/b/c'/- (3c'/c'/b/ (3a/g/a/- (3a/c'/d'/ (3e'/d'/c'/ | %31
 !tenuto!.b _e'- (3e'/ d'/ c'/ (3=b/ c'/ d'/ (3c'/ d'/ e'/ (3f'/ e'/ d'/ | %32
 (3_a'/ g'/ f'/ e'- (3e'/ ^f'/ g'/ (3c'/ =b/ c'/- (3c'/ c''/ b'/ (3=a'/ g'/ f'/ | %33
 (3g'/ f'/ _e'/ (3d'/ c'/ b/ (3e'/ d'/ c'/ (3b/ a/ g/[I:staff +1] d/[I:staff -1]a/c'/^f'/ | %34
 (3g'/d/e/ (3^f/ g/ a/ b2- (3b/ b/ c'/ (3d'/ c'/ b/ | !tenuto!.a !tenuto!.f z2 z2 | %36
 z f'/ e'/ !tenuto!.f' !tenuto!.a' !tenuto!.d' !tenuto!.g' | %37
 !tenuto!.c' !tenuto!.f'- f' e'/ d'/ Pe'2 | f' z d'/ ^c'/ d' !tenuto!.g' !tenuto!.c' | %39
 !tenuto!.f' !tenuto!.b _e'2- (3e'/ c'/ b/ (3a/ b/ c'/ | %40
 !tenuto!.d' d- (3d/ e/ f/ (3g/ f/ e/ c'/ c/ c'/ b/ | %41
 !tenuto!.c' !tenuto!.f' !tenuto!.b !tenuto!._e' (3a/ b/ c'/ (3d'/ c'/ d'/ | %42
{c'} =b c'/ d'/ _e'/ f'/ g'- (3g'/ a'/ g'/ (3f'/ =e'/ f'/- | %43
 (3f'/ g'/ f'/ (3e'/ f'/ g'/ !tenuto!.^c' !tenuto!.f' !tenuto!.b !tenuto!.e' | %44
 a g/ a/ !tenuto!.b !tenuto!.d' g/ a/ b- | %45
 (3b/ a/ g/ (3a/ b/ c'/- (3c'/ b/ a/ (3b/ c'/ d'/- (3d'/ c'/ b/ (3c'/ d'/ _e'/- | %46
 (3e'/ c'/ d'/ b'- (3b'/ c'/ d'/ (3=e'/ f'/ g'/ (3a'/ g'/ f'/ (3e'/ d'/ c'/ | %47
 (3f'/ e'/ d'/ (3c'/ b/ a/ (3d'/ c'/ b/ (3a/ g/ f/ (3e/ g/ a/ (3b/ a/ g/ | %48
 (3a/ g/ f/ (3g/ f/ e/[Q:1/4=58] (3f/ a/ g/[Q:1/4=55] (3f/ e/ d/[Q:1/4=51] (3c/[I:staff +1]B/A/[Q:1/4=46] (3B/A/G/ | %49
[Q:1/4=40][I:staff -1] B/4 A/4 B/4 A/4- A |] %50
V:2
 z6 | z6 |: z6 | z6 | f4 g2 | a4 b2 | c'4 b2 | a2 g4 | a6 | z6 | z2 z2 a g | a4 g a | b2 a2 g2 | %13
 f2 d2 e2 | f6 | z6 | z6 | z6 |1 z6 | z6 :|2 x6 || z6 | z6 | z6 | z6 | z6 | z6 | z2 z2 f2 | g4 a2 | %29
 b2- (3b/c'/b/ (3a/b/g/ a2 | g2 ^f4 | g6 | z6 | z6 | z2 z2 g2 | a4 b2 | c'4 b2 | a2 g4 | a4 z2 | %39
 z6 | z6 | z2 z2 f2 | g4 a2 | b2 a2 g2 | f2 d2 e2 | f6 | z6 | z6 | z6 | x2 |] %50
V:3
 z6 | z2 c2 d2 |: e3 f/ g/ (3f/ e/ d/ (3e/ d/ c/ | !tenuto!.f !tenuto!.F f3 e | %4
 f A/ G/ !tenuto!.A !tenuto!.d !tenuto!.G !tenuto!.c | F2 z2 z2 | %6
 z/ A,/ B,/ C/ D/ E/ F- (3F/ E/ D/ (3E/ F/ G/- | %7
 (3G/ F/ E/ (3F/ G/ A/ B, B/ A/ !tenuto!.B !tenuto!.D | %8
 ^C/ A/ =B/ ^c/ d/ e/ f- (3f/ e/ d/ (3e/ f/ g/ | %9
 ^c F/ E/ !tenuto!.F !tenuto!.B !tenuto!.E !tenuto!.A | %10
 !tenuto!.F !tenuto!.d !tenuto!.G !tenuto!.^G !tenuto!.A !tenuto!.A, | %11
 D/ F/ G/ A/ B/ c/ d- (3d/ c/ B/ (3c/ d/ _e/ | %12
 G F/ E/ !tenuto!.F !tenuto!.B !tenuto!.E !tenuto!.A | %13
 D/ D,/ E,/ F,/ G,/ A,/ B,- (3B,/ A,/ G,/ (3A,/ B,/ C/- | %14
 (3C/ B,/ A,/ (3B,/ C/ D/- (3D/ C/ B,/ (3C/D/_E/- (3E/D/C/ (3D/E/F/- | %15
 F/ E/ D/ C/ !tenuto!.F !tenuto!.A !tenuto!.D !tenuto!.F | %16
 !tenuto!.B !tenuto!.d !tenuto!.G !tenuto!.B !tenuto!.E !tenuto!.C | %17
 F C/ B,/ !tenuto!.A, !tenuto!.D !tenuto!.G,!tenuto!.C |1 %18
 F,2- (3F,/G,/A,/ (3B,/C/D/ (3E/ F/ G/ (3A/ B/ c/ | !tenuto!.F !tenuto!.F, c2 d2 :|2 z6 || %21
 _E3 F/ G/ (3F/ E/ D/ (3E/ D/ C/ | !tenuto!.D !tenuto!.G, G4- | %23
 G F/ E/ !tenuto!.F !tenuto!.B !tenuto!.E !tenuto!.A | D d- d c/ B/ !tenuto!.c !tenuto!.f | %25
 !tenuto!.B !tenuto!._e !tenuto!.A A,- (3A,/ B,/ C/ (3D/ C/ B,/ | %26
 !tenuto!.G G,- (3G,/ A,/ B,/ (3C/ B,/ A,/ F/ F,/ F- | %27
 (3F/ B/ c/ (3d/ c/ B/ (3f/ F/ G/ (3A/ G/ F/ (3B/ D/ C/ (3B,/ C/ D/ | %28
 _E2- (3E/D/C/ (3B,/ A,/ G,/ (3^F,/ A,/ G,/ (3F,/ E,/ D,/ | %29
 G,G/^F/ !tenuto!.G !tenuto!.c !tenuto!.=F !tenuto!.B | %30
 !tenuto!._E !tenuto!._e A d/ c/ !tenuto!.d !tenuto!.D | %31
 G,/ G/ A/ B/ c/ d/ _e- (3e/ d/ c/ (3d/ e/ f/ | %32
 =B B,/ A,/ !tenuto!.B, !tenuto!._E !tenuto!.A, !tenuto!.D | %33
 !tenuto!.B, !tenuto!.G !tenuto!.c !tenuto!.^c !tenuto!.d !tenuto!.D | %34
 G, z (3z/ G/ A/ (3B/ c/ d/ !tenuto!.E !tenuto!.C | F,/ C/ D/ E/ F/ G/ A- (3A/ G/ F/ (3G/ A/ B/ | %36
 (3B/ A/ G/ (3A/ B/ c/ (3F/ A/ G/ (3F/ E/ F/ (3F/ G/ F/ (3E/ D/ E/ | %37
 F/ E/ D/ C/ B,/ A,/ B,- (3B,/ A,/ G,/ (3A,/ B,/ C/ | %38
 F,F/E/ !tenuto!.F !tenuto!.B !tenuto!.E !tenuto!.A | D2- (3D/ _E/ F/ (3G/ F/ E/ !tenuto!.c C- | %40
 (3C/ D/ _E/ (3F/ E/ D/ B/ B,/ B- (3B/ G/ F/ (3=E/ F/ G/ | %41
 (3A/ F/ E/ (3D/ E/ F/ (3G/ _E/ D/ (3C/ D/ E/ F/ F,/ F- | %42
 F _E/ D/ !tenuto!.C !tenuto!.E !tenuto!.A, !tenuto!.D | %43
 !tenuto!.G, G- (3G/ F/ E/ (3D/ ^C/ D/- (3D/E/D/ (3C/ =B,/ C/ | %44
 E/ D,/ E,/ F,/ G,/ A,/ B,- (3B,/ C/ B,/ (3A,/ B,/ C/ | %45
 F, F/ _E/ !tenuto!.D !tenuto!.G !tenuto!.C !tenuto!.F | %46
 B, G/ F/ !tenuto!.E !tenuto!.C !tenuto!.F, !tenuto!.G, | %47
 !tenuto!.A, !tenuto!.F !tenuto!.B, !tenuto!.D !tenuto!.G, !tenuto!.E | %48
 F C/ B,/ !tenuto!.A, !tenuto!.B, !tenuto!.C!tenuto!.C, | F,2 |] %50
V:4
 x6 | x6 |: x6 | x6 | x6 | x6 | x6 | x6 | x6 | x6 | x6 | f x5 | x6 | x6 | x6 | x6 | x6 | x6 |1 x6 | %19
 x6 :|2 x6 || x6 | x6 | x6 | x6 | x6 | x6 | x6 | x6 | x6 | x6 | x6 | x6 | x6 | x6 | x6 | x6 | x6 | %38
 x6 | x6 | x6 | x6 | x6 | x6 | x6 | x6 | x6 | x6 | x6 | x2 |] %50
V:5
 x6 | x6 |: x6 | x6 | x6 | x6 | x6 | x6 | x6 | x6 | x6 | x6 | x6 | x6 | x6 | x6 | x6 | x6 |1 x6 | %19
 x6 :|2 F,2 C2 D2 || x6 | x6 | x6 | x6 | x6 | x6 | x6 | x6 | x6 | x6 | x6 | x6 | x6 | x6 | x6 | %36
 x6 | x6 | x6 | x6 | x6 | x6 | x6 | x6 | x6 | x6 | x6 | x6 | x6 | %49
 B,,,/4 A,,,/4 B,,,/4 A,,,/4- A,,, |] %50
V:6
!p! z2 F2 G2 | A3 B/c/ (3B/A/G/ (3A/G/F/ |: !tenuto!.c!tenuto!.C c3 B- | %3
 BA/G/ !tenuto!.A!tenuto!.d!tenuto!.G!tenuto!.c | A/B/c- (3c/B/A/f- (3f/e/d/ (3e/f/g/- | %5
 g/c/d/e/ f/g/a- (3a/g/f/ (3g/a/b/- | ba/g/ !tenuto!.f!tenuto!.a !tenuto!.d!tenuto!.g | %7
 !tenuto!.^c!tenuto!.d (3d/e/f/ (3e/d/c/ (3d/e/f/ (3e/f/g/- | %8
 g3/2f/4e/4 (3f/e/d/ (3e/d/^c/ (3d/=c/B/ (3c/B/A/ | %9
 (3B/A/G/A- (3A/a/g/ (3f/e/d/- (3d/g/f/ (3e/d/^c/ | %10
 (3d/=c/B/ (3A/G/F/ (3B/A/G/ (3F/E/D/[I:staff +1] A,/[I:staff -1]E/G/^c/ | %11
 dd/=c/ !tenuto!.d!tenuto!.f !tenuto!.B!tenuto!._e- | %12
 e/d/g- (3g/f/=e/ (3d/^c/d/- (3d/e/d/ (3=c/=B/c/- | %13
 c_B/A/ !tenuto!.B!tenuto!.d !tenuto!.G!tenuto!.c | %14
{B} Ad/c/ !tenuto!.B!tenuto!._e !tenuto!.c!tenuto!.f | %15
 (3B/A/B/g- (3g/A/B/ (3c/d/e/ (3f/e/d/ (3c/B/A/ | %16
 (3d/c/B/ (3A/G/F/ (3B/A/G/ (3F/E/D/ (3C/G/A/ (3B/A/G/ | %17
 (3A/G/F/ (3G/F/E/ (3F/A/G/ (3F/E/D/[I:staff +1] (3C/B,/A,/ (3B,/A,/G,/ |1 A,F,[I:staff -1] F2 G2 | %19
 A3 B/c/ (3B/A/G/ (3A/G/F/ :|2[I:staff +1] A,F,[I:staff -1] z2 z2 || z2 G2 A2 | %22
 B3 c/d/ (3c/B/A/ (3B/A/G/ | !tenuto!.A!tenuto!.D d3 ^c | %24
 fB/A/ !tenuto!.B!tenuto!._e !tenuto!.A!tenuto!.d | G2- (3G/A/B/ (3c/B/A/ !tenuto!.fF- | %26
 (3F/G/A/ (3B/A/G/ _e/_E/e- (3e/c/B/ (3A/B/c/ | %27
 !tenuto!.d!tenuto!.B !tenuto!.A!tenuto!.F !tenuto!.Dd- | %28
 d/c/B/A/ !tenuto!.B!tenuto!._e !tenuto!.A!tenuto!.d | D/F/_E/D/ !tenuto!.E_e- (3e/f/e/ (3d/c/d/ | %30
 (3d/_e/d/ (3c/B/c/- (3c/c/B/ (3A/G/A/- (3A/c/d/ (3e/d/c/ | %31
 !tenuto!.B_e- (3e/d/c/ (3=B/c/d/ (3c/d/e/ (3f/e/d/ | %32
 (3_a/g/f/=e- (3e/^f/g/ (3c/=B/c/- (3c/c'/_b/ (3=a/g/f/ | %33
 (3g/=f/_e/ (3d/c/B/ (3e/d/c/ (3B/A/G/[I:staff +1] D/[I:staff -1]A/c/^f/ | %34
 (3g/D/E/ (3^F/G/A/ B2- (3B/B/c/ (3d/c/B/ | !tenuto!.A!tenuto!.F z2 z2 | %36
 z f/e/ !tenuto!.f!tenuto!.a !tenuto!.d!tenuto!.g | !tenuto!.cf- fe/d/ Pe2 | %38
 f z d/^c/d !tenuto!.g!tenuto!.c | !tenuto!.f!tenuto!.B _e2- (3e/c/B/ (3A/B/c/ | %40
 !tenuto!.dD- (3D/=E/F/ (3G/F/E/ c/C/c/B/ | %41
 !tenuto!.c!tenuto!.f !tenuto!.B!tenuto!._e (3A/B/c/ (3d/c/d/ | %42
{c} =Bc/d/ _e/f/g- (3g/a/g/ (3f/=e/f/- | %43
 (3f/g/f/ (3e/f/g/ !tenuto!.^c!tenuto!.f !tenuto!._B!tenuto!.e | %44
 AG/A/ !tenuto!.B!tenuto!.d G/A/B- | (3B/A/G/ (3A/B/c/- (3c/B/A/ (3B/c/d/- (3d/c/B/ (3c/d/_e/- | %46
 (3e/c/d/b- (3b/c/d/ (3=e/f/g/ (3a/g/f/ (3e/d/c/ | %47
 (3f/e/d/ (3c/B/A/ (3d/c/B/ (3A/G/F/ (3E/G/A/ (3B/A/G/ | %48
 (3A/G/F/ (3G/F/E/ (3F/A/G/ (3F/E/D/ (3C/[I:staff +1]B,/A,/ (3B,/A,/G,/ | PA,2 |] %50
V:7
 z6 | z6 |: z6 | z6 | F4 G2 | A4 B2 | c4 B2 | A2 G4 | A6 | z6 | z2 z2 A G | A4 GA | B2 A2 G2 | %13
 F2 D2 E2 | F6 | z6 | z6 | z6 |1 z6 | z6 :|2 x6 || z6 | z6 | z6 | z6 | z6 | z6 | z2 z2 F2 | G4 A2 | %29
 B2- (3B/c/B/ (3A/B/G/ A2 | G2 ^F4 | G6 | z6 | z6 | z2 z2 G2 | A4 B2 | c4 B2 | A2 G4 | A4 z2 | z6 | %40
 z6 | z2 z2 F2 | G4 A2 | B2 A2 G2 | F2 D2 E2 | F6 | z6 | z6 | z6 | x2 |] %50
V:8
 z6 | z2 C2 D2 |: E3 F/G/ (3F/E/D/ (3E/D/C/ | !tenuto!.F!tenuto!.F, F3 E | %4
 FA,/G,/ !tenuto!.A,!tenuto!.D !tenuto!.G,!tenuto!.C | F,2 z2 z2 | %6
 z/ A,,/B,,/C,/ D,/E,/F,- (3F,/E,/D,/ (3E,/F,/G,/- | %7
 (3G,/F,/E,/ (3F,/G,/A,/ B,,B,/A,/ !tenuto!.B,!tenuto!.D, | %8
 ^C,/A,/=B,/^C/ D/E/F- (3F/E/D/ (3E/F/G/ | ^CF,/E,/ !tenuto!.F,!tenuto!.B, !tenuto!.E,!tenuto!.A, | %10
 !tenuto!.F,!tenuto!.D !tenuto!.G,!tenuto!.^G, !tenuto!.A,!tenuto!.A,, | %11
 D,/F,/G,/A,/ B,/C/D- (3D/C/B,/ (3C/D/_E/ | %12
 G,F,/=E,/ !tenuto!.F,!tenuto!.B, !tenuto!.E,!tenuto!.A, | %13
 D,/D,,/E,,/F,,/ G,,/A,,/B,,- (3B,,/A,,/G,,/ (3A,,/B,,/C,/- | %14
 (3C,/B,,/A,,/ (3B,,/C,/D,/- (3D,/C,/B,,/ (3C,/D,/_E,/- (3E,/D,/C,/ (3D,/E,/F,/- | %15
 F,/=E,/D,/C,/ !tenuto!.F,!tenuto!.A, !tenuto!.D,!tenuto!.F, | %16
 !tenuto!.B,!tenuto!.D !tenuto!.G,!tenuto!.B, !tenuto!.E,!tenuto!.C, | %17
 F,C,/B,,/ !tenuto!.A,,!tenuto!.D, !tenuto!.G,,!tenuto!.C, |1 %18
 F,,2- (3F,,/G,,/A,,/ (3B,,/C,/D,/ (3E,/F,/G,/ (3A,/B,/C/ | !tenuto!.F,!tenuto!.F,, C2 D2 :|2 z6 || %21
 _E,3 F,/G,/ (3F,/E,/D,/ (3E,/D,/C,/ | !tenuto!.D,!tenuto!.G,, G,4- | %23
 G,F,/E,/ !tenuto!.F,!tenuto!.B, !tenuto!.E,!tenuto!.A, | D,D- DC/B,/ !tenuto!.C!tenuto!.F | %25
 !tenuto!.B,!tenuto!._E !tenuto!.A,A,,- (3A,,/B,,/C,/ (3D,/C,/B,,/ | %26
 !tenuto!.G,G,,- (3G,,/A,,/B,,/ (3C,/B,,/A,,/ F,/F,,/F,- | %27
 (3F,/B,/C/ (3D/C/B,/ (3F/F,/G,/ (3A,/G,/F,/ (3B,/D,/C,/ (3B,,/C,/D,/ | %28
 _E,2- (3E,/D,/C,/ (3B,,/A,,/G,,/ (3^F,,/A,,/G,,/ (3F,,/E,,/D,,/ | %29
 G,,G,/^F,/ !tenuto!.G,!tenuto!.C !tenuto!.=F,!tenuto!.B, | %30
 !tenuto!._E,!tenuto!._E A,D/C/ !tenuto!.D!tenuto!.D, | G,,/G,/A,/B,/ C/D/_E- (3E/D/C/ (3D/E/F/ | %32
 =B,_B,,/A,,/ !tenuto!.B,,!tenuto!._E, !tenuto!.A,,!tenuto!.D, | %33
 !tenuto!.B,,!tenuto!.G, !tenuto!.C!tenuto!.^C !tenuto!.D!tenuto!.D, | %34
 G,, z (3z/ G,/A,/ (3B,/C/D/ !tenuto!.E,!tenuto!.C, | %35
 F,,/C,/D,/E,/ F,/G,/A,- (3A,/G,/F,/ (3G,/A,/B,/ | %36
 (3B,/A,/G,/ (3A,/B,/C/ (3F,/A,/G,/ (3F,/E,/F,/ (3F,/G,/F,/ (3E,/D,/E,/ | %37
 F,/E,/D,/C,/ B,,/A,,/B,,- (3B,,/A,,/G,,/ (3A,,/B,,/C,/ | %38
 F,,F,/E,/ !tenuto!.F,!tenuto!.B, !tenuto!.E,!tenuto!.A, | %39
 D,2- (3D,/_E,/F,/ (3G,/F,/E,/ !tenuto!.CC,- | %40
 (3C,/D,/_E,/ (3F,/E,/D,/ B,/B,,/B,- (3B,/G,/F,/ (3=E,/F,/G,/ | %41
 (3A,/F,/E,/ (3D,/E,/F,/ (3G,/_E,/D,/ (3C,/D,/E,/ F,/F,,/F,- | %42
 F,_E,/D,/ !tenuto!.C,!tenuto!.E, !tenuto!.A,,!tenuto!.D, | %43
 !tenuto!.G,,G,- (3G,/F,/E,/ (3D,/^C,/D,/- (3D,/E,/D,/ (3C,/=B,,/C,/ | %44
 E,/D,,/E,,/F,,/ G,,/A,,/B,,- (3B,,/C,/B,,/ (3A,,/B,,/C,/ | %45
 F,,F,/_E,/ !tenuto!.D,!tenuto!.G, !tenuto!.C,!tenuto!.F, | %46
 B,,G,/F,/ !tenuto!.=E,!tenuto!.C, !tenuto!.F,,!tenuto!.G,, | %47
 !tenuto!.A,,!tenuto!.F, !tenuto!.B,,!tenuto!.D, !tenuto!.G,,!tenuto!.E, | %48
 F,C,/B,,/ !tenuto!.A,,!tenuto!.B,, !tenuto!.C,!tenuto!.C,, | F,,2 |] %50
V:9
 x6 | x6 |: x6 | x6 | x6 | x6 | x6 | x6 | x6 | x6 | x6 | F x5 | x6 | x6 | x6 | x6 | x6 | x6 |1 x6 | %19
 x6 :|2 x6 || x6 | x6 | x6 | x6 | x6 | x6 | x6 | x6 | x6 | x6 | x6 | x6 | x6 | x6 | x6 | x6 | x6 | %38
 x6 | x6 | x6 | x6 | x6 | x6 | x6 | x6 | x6 | x6 | x6 | x2 |] %50
V:10
 x6 | x6 |: x6 | x6 | x6 | x6 | x6 | x6 | x6 | x6 | x6 | x6 | x6 | x6 | x6 | x6 | x6 | x6 |1 x6 | %19
 x6 :|2 F,,2 C,2 D,2 || x6 | x6 | x6 | x6 | x6 | x6 | x6 | x6 | x6 | x6 | x6 | x6 | x6 | x6 | x6 | %36
 x6 | x6 | x6 | x6 | x6 | x6 | x6 | x6 | x6 | x6 | x6 | x6 | x6 | x2 |] %50

